Sites/RacingCar/app/img/dest/advantages/image(4).svg

<svg width="131" height="131" viewBox="0 0 131 131" fill="none" xmlns="http://www.w3.org/2000/svg">
<circle cx="65.5" cy="65.5" r="65.5" fill="url(#paint0_linear)"/>
<path d="M65.374 50.6384V27M65.374 27L57.8772 35.5468M65.374 27L73.4308 35.5468M65.374 82.2846V105.769M65.374 105.769L73.0458 97.4532M65.374 105.769L57.5692 97.4532M26 66.451H49.5614M26 66.451L34.7778 59.2622M26 66.451L34.7778 73.8918M81.3616 66.451H105M105 66.451L96.9152 59.2622M105 66.451L96.9152 73.8918M56.3372 57.4142H65.374H74.4108V75.4878H56.3832L56.3602 66.451L56.3372 57.4142Z" stroke="white" stroke-width="2" stroke-linecap="round"/>
<path d="M85.6079 46.1222C85.5802 45.5706 85.1106 45.146 84.559 45.1737L75.5703 45.6255C75.0188 45.6532 74.5941 46.1228 74.6218 46.6744C74.6495 47.226 75.1192 47.6507 75.6707 47.623L83.6607 47.2214L84.0623 55.2113C84.09 55.7629 84.5596 56.1875 85.1112 56.1598C85.6628 56.1321 86.0875 55.6625 86.0597 55.1109L85.6079 46.1222ZM76.8674 56.2246L85.3509 46.8431L83.8675 45.5017L75.384 54.8831L76.8674 56.2246Z" fill="white"/>
<path d="M45.0105 45.1725C44.4583 45.1769 44.0141 45.6282 44.0186 46.1805L44.0906 55.1802C44.095 55.7324 44.5463 56.1766 45.0985 56.1721C45.6508 56.1677 46.0949 55.7164 46.0905 55.1642L46.0265 47.1644L54.0262 47.1004C54.5785 47.096 55.0226 46.6447 55.0182 46.0925C55.0138 45.5402 54.5625 45.0961 54.0102 45.1005L45.0105 45.1725ZM55.4217 55.0075L45.7199 45.4597L44.3171 46.8852L54.0188 56.433L55.4217 55.0075Z" fill="white"/>
<path d="M44.0185 86.9475C44.016 87.4998 44.4616 87.9495 45.0139 87.9521L54.0138 87.9936C54.5661 87.9961 55.0159 87.5504 55.0184 86.9982C55.021 86.4459 54.5753 85.9961 54.023 85.9936L46.0231 85.9567L46.06 77.9568C46.0625 77.4045 45.6169 76.9547 45.0646 76.9522C44.5123 76.9497 44.0626 77.3953 44.06 77.9476L44.0185 86.9475ZM53.2995 77.3393L44.3147 86.2417L45.7224 87.6624L54.7072 78.76L53.2995 77.3393Z" fill="white"/>
<path d="M86.1082 88.0383C86.6605 88.0343 87.1049 87.5834 87.1009 87.0311L87.0356 78.0314C87.0316 77.4791 86.5807 77.0346 86.0284 77.0386C85.4761 77.0426 85.0317 77.4936 85.0357 78.0459L85.0937 86.0457L77.0939 86.1037C76.5417 86.1077 76.0972 86.5587 76.1012 87.1109C76.1052 87.6632 76.5562 88.1077 77.1084 88.1037L86.1082 88.0383ZM76.3906 78.872L85.399 87.7506L86.8029 86.3262L77.7945 77.4476L76.3906 78.872Z" fill="white"/>
<defs>
<linearGradient id="paint0_linear" x1="65.5" y1="0" x2="65.5" y2="131" gradientUnits="userSpaceOnUse">
<stop stop-color="#6F81AB"/>
<stop offset="1" stop-color="#001F66"/>
</linearGradient>
</defs>
</svg>

<svg width="131" height="131" fill="none" xmlns="http://www.w3.org/2000/svg"><circle cx="65.5" cy="65.5" r="65.5" fill="url(#paint0_linear)"/><path d="M65.374 50.638V27m0 0l-7.497 8.547M65.374 27l8.057 8.547m-8.057 46.738v23.484m0 0l7.672-8.316m-7.672 8.316l-7.805-8.316M26 66.451h23.561m-23.561 0l8.778-7.189M26 66.451l8.778 7.44m46.584-7.44H105m0 0l-8.085-7.189M105 66.451l-8.085 7.44M56.337 57.415h18.074v18.074H56.383l-.023-9.037-.023-9.037z" stroke="#fff" stroke-width="2" stroke-linecap="round"/><path d="M85.608 46.122a1 1 0 00-1.049-.948l-8.989.452a1 1 0 00.1 1.997l7.99-.402.402 7.99a1 1 0 101.998-.1l-.452-8.989zm-8.74 10.103l8.483-9.382-1.483-1.341-8.484 9.381 1.483 1.342zM45.01 45.172a1 1 0 00-.991 1.009l.072 9a1 1 0 102-.017l-.065-8 8-.064a1 1 0 10-.016-2l-9 .072zm10.412 9.836L45.72 45.46l-1.403 1.425 9.702 9.548 1.403-1.425zm-11.403 31.94a1 1 0 00.995 1.004l9 .042a1 1 0 00.009-2l-8-.037.037-8a1 1 0 10-2-.01l-.041 9zm9.28-9.609l-8.984 8.903 1.407 1.42 8.985-8.902-1.407-1.42zm32.809 10.699a1 1 0 00.993-1.007l-.065-9a1 1 0 10-2 .015l.058 8-8 .058a1 1 0 00.014 2l9-.066zm-9.717-9.166l9.008 8.879 1.404-1.425-9.008-8.878-1.404 1.424z" fill="#fff"/><defs><linearGradient id="paint0_linear" x1="65.5" y1="0" x2="65.5" y2="131" gradientUnits="userSpaceOnUse"><stop stop-color="#6F81AB"/><stop offset="1" stop-color="#001F66"/></linearGradient></defs></svg>
